X: 4023
T: HEATHER JOCK
R: Strathspey.
%R: strathspey
B: James Kerr "Merry Melodies" v.4 p.05 #23
Z: 2016 John Chambers <jc:trillian.mit.edu>
M: C
L: 1/8
K: A
[|\
(e<c) a2 (e<c) a2 | e>ca>e f>ec>A |\
(d<B) b2 (d<B) b2 | d>fb>a (3gfe (3dcB |\
(e<c) a2 (e<c) a2 | e>ca>e f>ec>A |
d>ef>g a>ec>A | f/e/d/c/ d/c/B/A/ G<B Bd |]\
(c<A) E>A C>EA>B | c>Ae>c a>ec>A |\
(d<B) F>B D>FB>c |
d>B b>a (3gfe (3dcB |\
(c<A) E>A C>EA>B | c>Ae>c a>ec>A |\
d>ef>g a>ec>A | f/e/d/c/ d/c/B/A/ G<B Bd |]

%%sep 1 1 500
%%sep 1 1 500

